svg/600/outlined/editor_choice.svg

<svg xmlns="http://www.w3.org/2000/svg" width="48" height="48" viewBox="0 -960 960 960"><path d="M240.391-23.043v-362.783L110.695-594.522l185.218-300.174h368.174l185.218 300.174-129.696 208.696v362.783L480-103.434 240.391-23.043Zm79.218-111.131L480-185.783l160.391 51.609v-160.739H319.609v160.739Zm20.043-680.739L203.305-594.522l136.347 219.826h280.696l136.347-219.826-136.347-220.391H339.652Zm100.044 368.826-128-127 50.913-50.914 77.087 77.087L596.26-703.913l51.479 49.348-208.043 208.478ZM319.609-294.913h320.782-320.782Z"/></svg>

<svg xmlns="http://www.w3.org/2000/svg" width="48" height="48" viewBox="0 -960 960 960"><path d="M240.39-23.04v-362.79L110.7-594.52 295.91-894.7h368.18L849.3-594.52 719.61-385.83v362.79L480-103.43 240.39-23.04Zm79.22-111.13L480-185.78l160.39 51.61v-160.74H319.61v160.74Zm20.04-680.74L203.3-594.52 339.65-374.7h280.7L756.7-594.52 620.35-814.91h-280.7ZM439.7-446.09l-128-127L362.61-624l77.09 77.09 156.56-157 51.48 49.34L439.7-446.09ZM319.61-294.91h320.78-320.78Z"/></svg>
